X: 3140
T: Beautiful Gortree
R: reel
M: 4/4
K: Dmajor
B|:AD D2 D2 FA|BAFA f2af|edfe dBAd|efed BAFE|
D3E FEDF|A2 FA f2af|e3d fedB|1 AFEF D2dB:|2 AFEF D3d||
|:efed Adfd|de (3fed BdAd|efed Adfd|ABBA ABde-|
efed Adfd|de (3fed BdAd|efed BddB|1 AFEF D3d:|2 AFEF D2dB||

